X: 21640
T: Killeigh Abbey
R: jig
M: 6/8
K: Amajor
|:cBc efa|fec ecB|ABA FEF|ABc ecB|
~f3 afa|fec ecB|AFE Ace|fec A3:|
|:Ace ~a3|baf ecB|AFE Ace|f{g}ec BAF|
~E3 Ace|fdf ecB|1 AFE Ace|
fec A2E:|2 (3fga f ecA|FEC A,3||

